assets/icons/dark/icon-dev.svg

<svg width="40" height="40" viewBox="0 0 40 40" fill="none" xmlns="http://www.w3.org/2000/svg">
<path opacity="0.05" fill-rule="evenodd" clip-rule="evenodd" d="M3 5C1.89543 5 1 5.89543 1 7V32C1 33.1046 1.89543 34 3 34H37C38.1046 34 39 33.1046 39 32V7C39 5.89543 38.1046 5 37 5H3ZM36 13H4V32H36V13Z" fill="#0D86FF"/>
<path d="M37.6172 4.375H2.38281C1.06903 4.375 0 5.44403 0 6.75781V33.2422C0 34.556 1.06903 35.625 2.38281 35.625H37.6172C38.931 35.625 40 34.556 40 33.2422V6.75781C40 5.44403 38.931 4.375 37.6172 4.375ZM38.4375 33.2422C38.4375 33.6945 38.0695 34.0625 37.6172 34.0625H2.38281C1.93054 34.0625 1.5625 33.6945 1.5625 33.2422V6.75781C1.5625 6.30554 1.93054 5.9375 2.38281 5.9375H37.6172C38.0695 5.9375 38.4375 6.30554 38.4375 6.75781V33.2422Z" fill="#0D86FF"/>
<path d="M14.9219 9.79156H35.0781C35.5096 9.79156 35.8594 9.44183 35.8594 9.01031C35.8594 8.5791 35.5096 8.22906 35.0781 8.22906H14.9219C14.4904 8.22906 14.1406 8.5791 14.1406 9.01031C14.1406 9.44183 14.4904 9.79156 14.9219 9.79156Z" fill="#0D86FF"/>
<path d="M3.99207 9.3094C4.0116 9.3564 4.03571 9.40157 4.06378 9.44368C4.09186 9.48671 4.12482 9.52669 4.16083 9.56239C4.30609 9.70857 4.50751 9.79158 4.71289 9.79158C4.76447 9.79158 4.81543 9.7867 4.86609 9.77663C4.91614 9.76656 4.96527 9.7516 5.01227 9.73207C5.05927 9.71254 5.10443 9.68843 5.14655 9.66035C5.18958 9.63136 5.22955 9.5984 5.26526 9.5627C5.30219 9.52669 5.33423 9.48671 5.36292 9.44398C5.3913 9.40157 5.41541 9.3564 5.43494 9.3094C5.45447 9.2618 5.46942 9.21266 5.47949 9.16322C5.48956 9.11256 5.49414 9.06099 5.49414 9.01033C5.49414 8.95937 5.48956 8.90779 5.47949 8.85805C5.46942 8.808 5.45447 8.75856 5.43494 8.71187C5.41541 8.66426 5.3913 8.61879 5.36292 8.57668C5.33423 8.53365 5.30219 8.49397 5.26526 8.45796C5.22955 8.42195 5.18958 8.3893 5.14655 8.36092C5.10443 8.33284 5.05927 8.30873 5.01227 8.2892C4.96527 8.26967 4.91614 8.25471 4.86609 8.24464C4.76538 8.2242 4.66162 8.2242 4.56061 8.24464C4.51056 8.25471 4.46143 8.26967 4.41473 8.2892C4.36682 8.30873 4.32166 8.33284 4.27954 8.36092C4.23651 8.3893 4.19653 8.42195 4.16083 8.45796C4.12482 8.49397 4.09186 8.53365 4.06378 8.57668C4.03571 8.61879 4.0116 8.66426 3.99207 8.71187C3.97253 8.75856 3.95758 8.808 3.94751 8.85805C3.93713 8.90779 3.93164 8.95937 3.93164 9.01033C3.93164 9.06099 3.93713 9.11256 3.94751 9.16322C3.95758 9.21266 3.97253 9.2618 3.99207 9.3094Z" fill="#0D86FF"/>
<path d="M7.11707 9.3094C7.1366 9.3564 7.16071 9.40157 7.18878 9.44368C7.21686 9.48671 7.24982 9.52669 7.28583 9.56239C7.43109 9.70857 7.63251 9.79158 7.83789 9.79158C7.88947 9.79158 7.94043 9.7867 7.99109 9.77663C8.04114 9.76656 8.09027 9.7516 8.13727 9.73207C8.18427 9.71254 8.22943 9.68843 8.27155 9.66035C8.31458 9.63136 8.35455 9.5984 8.39117 9.5627C8.42719 9.52669 8.45923 9.48671 8.48792 9.44398C8.5163 9.40157 8.54041 9.3564 8.55994 9.3094C8.57947 9.2618 8.59442 9.21266 8.60449 9.16322C8.61456 9.11256 8.61914 9.06099 8.61914 9.01033C8.61914 8.95937 8.61456 8.90779 8.60449 8.85805C8.59442 8.808 8.57947 8.75856 8.55994 8.71187C8.54041 8.66426 8.5163 8.61879 8.48792 8.57668C8.45923 8.53365 8.42719 8.49397 8.39117 8.45796C8.35455 8.42195 8.31458 8.3893 8.27155 8.36092C8.22943 8.33284 8.18427 8.30873 8.13727 8.2892C8.09027 8.26967 8.04114 8.25471 7.99109 8.24464C7.89038 8.2242 7.78662 8.2242 7.68561 8.24464C7.63556 8.25471 7.58643 8.26967 7.53973 8.2892C7.49182 8.30873 7.44666 8.33284 7.40454 8.36092C7.36151 8.3893 7.32153 8.42195 7.28583 8.45796C7.24982 8.49397 7.21686 8.53365 7.18878 8.57668C7.16071 8.61879 7.1366 8.66426 7.11707 8.71187C7.09753 8.75856 7.08258 8.808 7.07251 8.85805C7.06213 8.90779 7.05664 8.95937 7.05664 9.01033C7.05664 9.06099 7.06213 9.11256 7.07251 9.16322C7.08258 9.21266 7.09753 9.2618 7.11707 9.3094Z" fill="#0D86FF"/>
<path d="M10.2421 9.3094C10.2616 9.3564 10.2857 9.40157 10.3138 9.44368C10.3419 9.48671 10.3748 9.52669 10.4108 9.56239C10.4465 9.5984 10.4865 9.63136 10.5295 9.66005C10.5717 9.68843 10.6168 9.71254 10.6647 9.73207C10.7114 9.7516 10.7606 9.76656 10.8106 9.77663C10.8607 9.7867 10.9122 9.79128 10.9629 9.79128C11.0145 9.79128 11.0654 9.7867 11.1161 9.77663C11.1661 9.76656 11.2153 9.7516 11.2623 9.73207C11.3093 9.71254 11.3544 9.68843 11.3975 9.66005C11.4396 9.63136 11.4796 9.5984 11.5162 9.56239C11.5522 9.52669 11.5842 9.48671 11.6129 9.44368C11.6413 9.40157 11.6654 9.3564 11.6849 9.3094C11.7045 9.2618 11.7194 9.21266 11.7295 9.16322C11.7396 9.11256 11.7441 9.06099 11.7441 9.01003C11.7441 8.95937 11.7396 8.90779 11.7295 8.85774C11.7194 8.80769 11.7045 8.75856 11.6849 8.71187C11.6654 8.66396 11.6413 8.61879 11.6129 8.57668C11.5842 8.53365 11.5522 8.49367 11.5162 8.45796C11.4796 8.42195 11.4396 8.38899 11.3975 8.36092C11.3544 8.33284 11.3093 8.30873 11.2623 8.2892C11.2153 8.26967 11.1661 8.25471 11.1161 8.24464C11.0154 8.2242 10.9116 8.2242 10.8106 8.24464C10.7606 8.25471 10.7114 8.26967 10.6647 8.2892C10.6168 8.30873 10.5717 8.33284 10.5295 8.36092C10.4865 8.38899 10.4465 8.42195 10.4108 8.45796C10.3748 8.49367 10.3419 8.53365 10.3138 8.57668C10.2857 8.61879 10.2616 8.66396 10.2421 8.71187C10.2225 8.75856 10.2076 8.80769 10.1975 8.85774C10.1871 8.90779 10.1816 8.95937 10.1816 9.01003C10.1816 9.06099 10.1871 9.11256 10.1975 9.16322C10.2076 9.21266 10.2225 9.2618 10.2421 9.3094Z" fill="#0D86FF"/>
<path d="M22.715 17.739C22.3436 17.5192 21.8644 17.6425 21.6447 18.0139L17.0094 25.8524C16.7897 26.2238 16.9126 26.7029 17.284 26.9223C17.4089 26.9962 17.5459 27.0316 17.6811 27.0316C17.9481 27.0316 18.2084 26.8942 18.3543 26.6477L22.9896 18.8092C23.2093 18.4378 23.0864 17.9587 22.715 17.739V17.739Z" fill="#0D86FF"/>
<path d="M12.9772 20.0351V19.2462C12.9772 18.8095 13.3325 18.454 13.7692 18.454H13.7802C14.2117 18.454 14.5614 18.1042 14.5614 17.6727C14.5614 17.2415 14.2117 16.8915 13.7802 16.8915H13.7692C12.471 16.8915 11.4147 17.948 11.4147 19.2462V20.0351C11.4147 20.3192 11.2982 20.5963 11.0949 20.795L10.0826 21.7853C9.93342 21.9312 9.84888 22.1307 9.84766 22.3395C9.84675 22.5482 9.92915 22.7487 10.0769 22.8964L11.1083 23.9276C11.3073 24.1263 11.4178 24.3906 11.4199 24.6719L11.4254 25.4907C11.4346 26.7801 12.4908 27.8293 13.7802 27.8293C14.2117 27.8293 14.5614 27.4792 14.5614 27.048C14.5614 26.6165 14.2117 26.2668 13.7802 26.2668C13.3462 26.2668 12.991 25.9137 12.9879 25.48L12.9824 24.6613C12.9775 23.9664 12.7041 23.3133 12.2131 22.8226L11.7401 22.3499L12.1878 21.9119C12.6895 21.4209 12.9772 20.737 12.9772 20.0351V20.0351Z" fill="#0D86FF"/>
<path d="M27.0226 24.6857V25.4745C27.0226 25.9113 26.6674 26.2668 26.2307 26.2668H26.2197C25.7882 26.2668 25.4385 26.6165 25.4385 27.048C25.4385 27.4792 25.7882 27.8293 26.2197 27.8293H26.2307C27.5289 27.8293 28.5851 26.7728 28.5851 25.4745V24.6857C28.5851 24.4016 28.7017 24.1245 28.905 23.9258L29.9172 22.9355C30.0665 22.7896 30.151 22.59 30.1519 22.3813C30.1531 22.1725 30.0707 21.972 29.923 21.8243L28.8915 20.7932C28.6926 20.5945 28.5818 20.3299 28.5799 20.0488L28.5742 19.23C28.5653 17.9407 27.5091 16.8918 26.2197 16.8918C25.7882 16.8918 25.4385 17.2415 25.4385 17.673C25.4385 18.1042 25.7882 18.4543 26.2197 18.4543C26.6534 18.4543 27.0089 18.8071 27.0117 19.2407L27.0175 20.0595C27.0223 20.7541 27.2955 21.4072 27.7868 21.8982L28.2598 22.3709L27.8121 22.8088C27.3104 23.2996 27.0226 23.9838 27.0226 24.6857V24.6857Z" fill="#0D86FF"/>
<path d="M36.0447 12.1353H3.95605C3.52454 12.1353 3.1748 12.4854 3.1748 12.9166V31.6666C3.1748 32.0981 3.52454 32.4478 3.95605 32.4478H13.2557C13.6872 32.4478 14.0369 32.0981 14.0369 31.6666C14.0369 31.2354 13.6872 30.8853 13.2557 30.8853H4.7373V13.6978H35.2634V30.8853H19.5316C19.1001 30.8853 18.7504 31.2354 18.7504 31.6666C18.7504 32.0981 19.1001 32.4478 19.5316 32.4478H36.0447C36.4762 32.4478 36.8259 32.0981 36.8259 31.6666V12.9166C36.8259 12.4854 36.4762 12.1353 36.0447 12.1353V12.1353Z" fill="#0D86FF"/>
</svg>

<?xml version="1.0" encoding="utf-8"?>
<!-- Generator: Adobe Illustrator 24.2.3, SVG Export Plug-In . SVG Version: 6.00 Build 0)  -->
<svg version="1.1" id="Capa_1" xmlns="http://www.w3.org/2000/svg" xmlns:xlink="http://www.w3.org/1999/xlink" x="0px" y="0px"
	 viewBox="0 0 40 40" style="enable-background:new 0 0 40 40;" xml:space="preserve">
<style type="text/css">
	.st0{opacity:5.000000e-02;fill-rule:evenodd;clip-rule:evenodd;fill:#1DA1F2;enable-background:new    ;}
	.st1{fill:#1DA1F2;}
</style>
<path class="st0" d="M3,5C1.9,5,1,5.9,1,7v25c0,1.1,0.9,2,2,2h34c1.1,0,2-0.9,2-2V7c0-1.1-0.9-2-2-2H3z M36,13H4v19h32V13z"/>
<path class="st1" d="M37.6,4.4H2.4C1.1,4.4,0,5.4,0,6.8v26.5c0,1.3,1.1,2.4,2.4,2.4h35.2c1.3,0,2.4-1.1,2.4-2.4V6.8
	C40,5.4,38.9,4.4,37.6,4.4z M38.4,33.2c0,0.5-0.4,0.8-0.8,0.8H2.4c-0.5,0-0.8-0.4-0.8-0.8V6.8c0-0.5,0.4-0.8,0.8-0.8h35.2
	c0.5,0,0.8,0.4,0.8,0.8V33.2z"/>
<path class="st1" d="M14.9,9.8h20.2c0.4,0,0.8-0.3,0.8-0.8c0-0.4-0.3-0.8-0.8-0.8H14.9c-0.4,0-0.8,0.4-0.8,0.8
	C14.1,9.4,14.5,9.8,14.9,9.8z"/>
<path class="st1" d="M4,9.3c0,0,0,0.1,0.1,0.1c0,0,0.1,0.1,0.1,0.1c0.1,0.1,0.3,0.2,0.6,0.2c0.1,0,0.1,0,0.2,0c0.1,0,0.1,0,0.1,0
	s0.1,0,0.1-0.1c0,0,0.1-0.1,0.1-0.1c0,0,0.1-0.1,0.1-0.1c0,0,0.1-0.1,0.1-0.1c0,0,0-0.1,0-0.1c0-0.1,0-0.1,0-0.2c0-0.1,0-0.1,0-0.2
	c0-0.1,0-0.1,0-0.1c0,0,0-0.1-0.1-0.1c0,0-0.1-0.1-0.1-0.1c0,0-0.1-0.1-0.1-0.1c0,0-0.1-0.1-0.1-0.1s-0.1,0-0.1,0
	c-0.1,0-0.2,0-0.3,0c-0.1,0-0.1,0-0.1,0c0,0-0.1,0-0.1,0.1c0,0-0.1,0.1-0.1,0.1c0,0-0.1,0.1-0.1,0.1C4,8.6,4,8.7,4,8.7
	c0,0,0,0.1,0,0.1c0,0,0,0.1,0,0.2c0,0.1,0,0.1,0,0.2C4,9.2,4,9.3,4,9.3z"/>
<path class="st1" d="M7.1,9.3c0,0,0,0.1,0.1,0.1c0,0,0.1,0.1,0.1,0.1c0.1,0.1,0.3,0.2,0.6,0.2c0.1,0,0.1,0,0.2,0c0.1,0,0.1,0,0.1,0
	s0.1,0,0.1-0.1c0,0,0.1-0.1,0.1-0.1c0,0,0.1-0.1,0.1-0.1c0,0,0.1-0.1,0.1-0.1c0,0,0-0.1,0-0.1c0-0.1,0-0.1,0-0.2c0-0.1,0-0.1,0-0.2
	c0-0.1,0-0.1,0-0.1c0,0,0-0.1-0.1-0.1c0,0-0.1-0.1-0.1-0.1c0,0-0.1-0.1-0.1-0.1c0,0-0.1-0.1-0.1-0.1S8,8.3,8,8.2c-0.1,0-0.2,0-0.3,0
	c-0.1,0-0.1,0-0.1,0c0,0-0.1,0-0.1,0.1c0,0-0.1,0.1-0.1,0.1c0,0-0.1,0.1-0.1,0.1c0,0-0.1,0.1-0.1,0.1c0,0,0,0.1,0,0.1
	c0,0,0,0.1,0,0.2c0,0.1,0,0.1,0,0.2C7.1,9.2,7.1,9.3,7.1,9.3z"/>
<path class="st1" d="M10.2,9.3c0,0,0,0.1,0.1,0.1c0,0,0.1,0.1,0.1,0.1c0,0,0.1,0.1,0.1,0.1c0,0,0.1,0.1,0.1,0.1c0,0,0.1,0,0.1,0
	c0.1,0,0.1,0,0.2,0c0.1,0,0.1,0,0.2,0c0,0,0.1,0,0.1,0c0,0,0.1,0,0.1-0.1c0,0,0.1-0.1,0.1-0.1c0,0,0.1-0.1,0.1-0.1
	c0,0,0.1-0.1,0.1-0.1c0,0,0-0.1,0-0.1c0-0.1,0-0.1,0-0.2c0-0.1,0-0.1,0-0.2c0-0.1,0-0.1,0-0.1c0,0,0-0.1-0.1-0.1
	c0,0-0.1-0.1-0.1-0.1c0,0-0.1-0.1-0.1-0.1c0,0-0.1-0.1-0.1-0.1c0,0-0.1,0-0.1,0c-0.1,0-0.2,0-0.3,0c-0.1,0-0.1,0-0.1,0
	c0,0-0.1,0-0.1,0.1c0,0-0.1,0.1-0.1,0.1c0,0-0.1,0.1-0.1,0.1c0,0-0.1,0.1-0.1,0.1c0,0,0,0.1,0,0.1c0,0.1,0,0.1,0,0.2
	c0,0.1,0,0.1,0,0.2C10.2,9.2,10.2,9.3,10.2,9.3z"/>
<path class="st1" d="M22.7,17.7c-0.4-0.2-0.9-0.1-1.1,0.3L17,25.9c-0.2,0.4-0.1,0.9,0.3,1.1c0.1,0.1,0.3,0.1,0.4,0.1
	c0.3,0,0.5-0.1,0.7-0.4l4.6-7.8C23.2,18.4,23.1,18,22.7,17.7L22.7,17.7z"/>
<path class="st1" d="M13,20v-0.8c0-0.4,0.4-0.8,0.8-0.8h0c0.4,0,0.8-0.3,0.8-0.8c0-0.4-0.3-0.8-0.8-0.8h0c-1.3,0-2.4,1.1-2.4,2.4V20
	c0,0.3-0.1,0.6-0.3,0.8l-1,1c-0.1,0.1-0.2,0.3-0.2,0.6c0,0.2,0.1,0.4,0.2,0.6l1,1c0.2,0.2,0.3,0.5,0.3,0.7l0,0.8
	c0,1.3,1.1,2.3,2.4,2.3c0.4,0,0.8-0.4,0.8-0.8c0-0.4-0.3-0.8-0.8-0.8c-0.4,0-0.8-0.4-0.8-0.8l0-0.8c0-0.7-0.3-1.3-0.8-1.8l-0.5-0.5
	l0.4-0.4C12.7,21.4,13,20.7,13,20L13,20z"/>
<path class="st1" d="M27,24.7v0.8c0,0.4-0.4,0.8-0.8,0.8h0c-0.4,0-0.8,0.3-0.8,0.8c0,0.4,0.3,0.8,0.8,0.8h0c1.3,0,2.4-1.1,2.4-2.4
	v-0.8c0-0.3,0.1-0.6,0.3-0.8l1-1c0.1-0.1,0.2-0.3,0.2-0.6c0-0.2-0.1-0.4-0.2-0.6l-1-1c-0.2-0.2-0.3-0.5-0.3-0.7l0-0.8
	c0-1.3-1.1-2.3-2.4-2.3c-0.4,0-0.8,0.3-0.8,0.8c0,0.4,0.3,0.8,0.8,0.8c0.4,0,0.8,0.4,0.8,0.8l0,0.8c0,0.7,0.3,1.3,0.8,1.8l0.5,0.5
	l-0.4,0.4C27.3,23.3,27,24,27,24.7L27,24.7z"/>
<path class="st1" d="M36,12.1H4c-0.4,0-0.8,0.4-0.8,0.8v18.8c0,0.4,0.3,0.8,0.8,0.8h9.3c0.4,0,0.8-0.3,0.8-0.8
	c0-0.4-0.3-0.8-0.8-0.8H4.7V13.7h30.5v17.2H19.5c-0.4,0-0.8,0.4-0.8,0.8c0,0.4,0.3,0.8,0.8,0.8H36c0.4,0,0.8-0.3,0.8-0.8V12.9
	C36.8,12.5,36.5,12.1,36,12.1L36,12.1z"/>
</svg>
